svgs/thin/files-medical.svg

<svg xmlns="http://www.w3.org/2000/svg" viewBox="0 0 448 512"><!--! Font Awesome Pro 6.0.0-alpha3 by @fontawesome - https://fontawesome.com License - https://fontawesome.com/license (Commercial License) --><path d="M328.2 168c0-8.836-7.151-16-15.97-16h-47.91c-8.819 0-15.97 7.164-15.97 16v48H200.5c-8.819 0-15.97 7.164-15.97 16v48c0 8.836 7.151 16 15.97 16h47.91v48c0 8.836 7.151 16 15.97 16h47.91c8.819 0 15.97-7.164 15.97-16v-48h47.91c8.819 0 15.97-7.164 15.97-16v-48c0-8.836-7.151-16-15.97-16h-47.91V168zM376.1 232v48h-63.88v64h-47.91v-64H200.5v-48h63.88v-64h47.91v64H376.1zM438.6 102.6l-93.08-93.26C339.6 3.371 331.5 0 322.1 0H192.5C157.2 0 128.6 28.65 128.6 64v288c0 35.35 28.6 64 63.88 64h191.6C419.3 416 448 387.3 448 352V125.3C448 116.8 444.6 108.6 438.6 102.6zM336.2 22.62L425.4 112h-81.22c-4.398 0-7.985-3.594-7.985-8V22.62zM432 352c0 26.47-21.49 48-47.91 48H192.5c-26.42 0-47.91-21.53-47.91-48V64c0-26.47 21.49-48 47.91-48h127.8v88c0 13.22 10.76 24 23.95 24h87.83V352zM310.8 448c-3.944 0-7.279 2.898-7.837 6.805C299.6 478.1 279.6 496 255.5 496H63.88c-26.46 0-47.91-21.49-47.91-48V160c0-26.51 21.45-48 47.91-48h23.95c4.412 0 7.985-3.582 7.985-8S92.25 96 87.83 96H63.88C28.6 96 0 124.7 0 160v288c0 35.34 28.69 64 63.97 64h191.5c32.2 0 58.83-23.87 63.24-54.91C319.4 452.3 315.6 448 310.8 448z"/></svg>

<svg xmlns="http://www.w3.org/2000/svg" viewBox="0 0 448 512"><!-- Font Awesome Pro 6.0.0-alpha2 by @fontawesome - https://fontawesome.com License - https://fontawesome.com/license (Commercial License) --><path d="M328.226 168C328.226 159.164 321.075 152 312.256 152H264.346C255.527 152 248.376 159.164 248.376 168V216H200.466C191.647 216 184.496 223.164 184.496 232V280C184.496 288.836 191.647 296 200.466 296H248.376V344C248.376 352.836 255.527 360 264.346 360H312.256C321.075 360 328.226 352.836 328.226 344V296H376.135C384.955 296 392.105 288.836 392.105 280V232C392.105 223.164 384.955 216 376.135 216H328.226V168ZM376.135 232V280H312.256V344H264.346V280H200.466V232H264.346V168H312.256V232H376.135ZM438.645 102.629L345.566 9.371C339.575 3.371 331.452 0 322.982 0H192.481C157.202 0 128.602 28.652 128.602 64V352C128.602 387.348 157.202 416 192.481 416H384.12C419.4 416 448 387.348 448 352V125.254C448 116.77 444.635 108.629 438.645 102.629ZM336.211 22.625L425.412 112H344.195C339.798 112 336.211 108.406 336.211 104V22.625ZM432.03 352C432.03 378.469 410.537 400 384.12 400H192.481C166.064 400 144.571 378.469 144.571 352V64C144.571 37.531 166.064 16 192.481 16H320.241V104C320.241 117.219 331.002 128 344.195 128H432.03V352ZM310.786 448C306.842 448 303.506 450.898 302.949 454.805C299.639 478.062 279.63 496 255.519 496H63.88C37.42 496 15.97 474.508 15.97 448V160C15.97 133.492 37.42 112 63.88 112H87.835C92.246 112 95.82 108.418 95.82 104S92.246 96 87.835 96H63.88C28.6 96 0 124.656 0 160V448C0 483.344 28.6 512 63.88 512H255.519C287.718 512 314.353 488.133 318.759 457.094C319.439 452.297 315.622 448 310.786 448Z"/></svg>
